X:1
T:The Queen's Jig
C:Traditional
M:6/8
L:1/8
Q:3/8=100
K:G
D|G2A BGB|c3 Bcd|cBA G2F|G3 D2D|G2A BGB|c3 Bcd|cBA G2F|G3-G3|]
